app/_assets/images/icons/icn-mail.svg

<svg height="12" viewBox="0 0 13 12" width="13" xmlns="http://www.w3.org/2000/svg"><path d="m25.375 130.375h-9.75c-.8978125 0-1.625-.728-1.625-1.625v-8.125c0-.897813.7271875-1.625 1.625-1.625h9.75c.8978125 0 1.625.727187 1.625 1.625v8.125c0 .897-.7271875 1.625-1.625 1.625zm0-7.71875-3.3173749 2.985637c-.4115212.37037-1.1891635.670613-1.7465051.670613h.37776c-.5530469 0-1.3338314-.299206-1.7465051-.670613l-3.3173749-2.985637v6.09375h9.75zm-9.34375-2.03125 4.1030534 3.730049c.2019687.183607.5354201.178157.7313932 0l4.1030534-3.730049z" fill-opacity=".55" fill-rule="evenodd" transform="translate(-14 -119)"/></svg>

<?xml version="1.0" encoding="UTF-8" standalone="no"?>
<svg width="13px" height="12px" viewBox="0 0 13 12" version="1.1" xmlns="http://www.w3.org/2000/svg" xmlns:xlink="http://www.w3.org/1999/xlink">
    <!-- Generator: Sketch 46.2 (44496) - http://www.bohemiancoding.com/sketch -->
    <title>path-1</title>
    <desc>Created with Sketch.</desc>
    <defs></defs>
    <g id="KongHQ.com" stroke="none" stroke-width="1" fill="none" fill-rule="evenodd" fill-opacity="0.55">
        <g id="installation--Detail" transform="translate(-181.000000, -1565.000000)" fill="#000000">
            <g id="Installation" transform="translate(167.000000, 697.000000)">
                <g id="Start-Kong:" transform="translate(0.000000, 749.000000)">
                    <g id="02">
                        <path d="M25.375,130.375 L15.625,130.375 C14.7271875,130.375 14,129.647 14,128.75 L14,120.625 C14,119.727187 14.7271875,119 15.625,119 L25.375,119 C26.2728125,119 27,119.727187 27,120.625 L27,128.75 C27,129.647 26.2728125,130.375 25.375,130.375 L25.375,130.375 Z M25.375,122.65625 L22.0576251,125.641887 C21.6461039,126.012257 20.8684616,126.3125 20.31112,126.3125 L20.68888,126.3125 C20.1358331,126.3125 19.3550486,126.013294 18.9423749,125.641887 L15.625,122.65625 L15.625,128.75 L25.375,128.75 L25.375,122.65625 Z M16.03125,120.625 L20.1343034,124.355049 C20.3362721,124.538656 20.6697235,124.533206 20.8656966,124.355049 L24.96875,120.625 L16.03125,120.625 Z" id="path-1"></path>
                    </g>
                </g>
            </g>
        </g>
    </g>
</svg>
